svgs/sharp-regular/arrows-from-dotted-line.svg

<svg xmlns="http://www.w3.org/2000/svg" viewBox="0 0 448 512"><!--! Font Awesome Pro 6.6.0 by @fontawesome - https://fontawesome.com License - https://fontawesome.com/license (Commercial License) Copyright 2024 Fonticons, Inc. --><path d="M241 18.2l-17-17-17 17-64 64-17 17L160 133.1l17-17 23-23 0 74.9 0 24 48 0 0-24 0-74.9 23 23 17 17 33.9-33.9-17-17-64-64zM248 344l0-24-48 0 0 24 0 74.9-23-23-17-17-33.9 33.9 17 17 64 64 17 17 17-17 64-64 17-17L288 378.9l-17 17-23 23 0-74.9zM64 224L0 224l0 64 64 0 0-64zm96 0l-64 0 0 64 64 0 0-64zm32 64l64 0 0-64-64 0 0 64zm160-64l-64 0 0 64 64 0 0-64zm32 0l0 64 64 0 0-64-64 0z"/></svg>

<svg xmlns="http://www.w3.org/2000/svg" viewBox="0 0 448 512"><!--! Font Awesome Pro 6.4.2 by @fontawesome - https://fontawesome.com License - https://fontawesome.com/license (Commercial License) Copyright 2023 Fonticons, Inc. --><path d="M241 18.2l-17-17-17 17-64 64-17 17L160 133.1l17-17 23-23V168v24h48V168 93.1l23 23 17 17 33.9-33.9-17-17-64-64zM248 344V320H200v24 74.9l-23-23-17-17-33.9 33.9 17 17 64 64 17 17 17-17 64-64 17-17L288 378.9l-17 17-23 23V344zM64 224H0v64H64V224zm96 0H96v64h64V224zm32 64h64V224H192v64zm160-64H288v64h64V224zm32 0v64h64V224H384z"/></svg>
